modules/mod-page-builder/libs/views/manager/img/syntax-unknown.svg

<svg width="16px" height="16px" viewBox="0 0 16 16" version="1.1" xmlns="http://www.w3.org/2000/svg" xmlns:xlink="http://www.w3.org/1999/xlink">
    <g id="Octicons" stroke="none" stroke-width="1" fill="none" fill-rule="evenodd">
        <g id="alert" fill="#000000">
            <path d="M8.865,1.51999998 C8.685,1.20999998 8.355,1.01999998 7.995,1.01999998 C7.635,1.01999998 7.305,1.20999998 7.125,1.51999998 L0.275000001,13.5 C0.0950000006,13.81 0.0950000006,14.19 0.275000001,14.5 C0.465000001,14.81 0.795000001,15 1.145,15 L14.845,15 C15.205,15 15.535,14.81 15.705,14.5 C15.875,14.19 15.885,13.81 15.715,13.5 L8.865,1.51999998 Z M8.995,13 L6.995,13 L6.995,11 L8.995,11 L8.995,13 L8.995,13 Z M8.995,9.99999998 L6.995,9.99999998 L6.995,5.99999998 L8.995,5.99999998 L8.995,9.99999998 L8.995,9.99999998 Z" id="Shape"></path>
        </g>
    </g>
</svg>

<svg xmlns="http://www.w3.org/2000/svg" width="16" height="16" viewBox="0 0 16 16">
 <path fill-rule="evenodd" d="M8.893 1.5c-.183-.31-.52-.5-.887-.5s-.703.19-.886.5L.138 13.499a.98.98 0 0 0 0 1.001c.193.31.53.501.886.501h13.964c.367 0 .704-.19.877-.5a1.03 1.03 0 0 0 .01-1.002L8.893 1.5zm.133 11.497H6.987v-2.003h2.039v2.003zm0-3.004H6.987V5.987h2.039v4.006z"/>
</svg>
